libs/islamic-website/markets-page/src/assets/images/kucoin.svg

<svg fill="none" height="40" viewBox="0 0 40 40" width="40" xmlns="http://www.w3.org/2000/svg"><path d="m13.5483 20.159 11.3438 11.3438 7.1684-7.1684c1.2564-1.2563 3.3255-1.2563 4.582 0 1.2562 1.2563 1.2562 3.3256 0 4.5819l-9.4595 9.4594c-1.2563 1.2563-3.3256 1.2563-4.5819 0l-13.59779-13.6349v8.1292c0 1.7737-1.44106 3.2517-3.25165 3.2517s-3.25166-1.4411-3.25166-3.2517v-25.34819c0-1.81059 1.44107-3.25167 3.25166-3.25167s3.25165 1.44108 3.25165 3.25167v8.05529l13.63479-13.63486c1.2563-1.256321 3.3256-1.256321 4.5819 0l9.4594 9.45936c1.2563 1.2563 1.2563 3.3255 0 4.582-1.2564 1.2562-3.3256 1.2562-4.5819 0l-7.1684-7.16853zm11.3808-3.2517c-1.8107 0-3.2517 1.441-3.2517 3.2517 0 1.8105 1.441 3.2517 3.2517 3.2517 1.8105 0 3.2515-1.4412 3.2515-3.2517-.0369-1.8107-1.4779-3.2517-3.2515-3.2517z" fill="#01bc8d"/></svg>

<svg width="40" height="40" viewBox="0 0 40 40" fill="none" xmlns="http://www.w3.org/2000/svg">
<path d="M13.5483 20.159L24.8921 31.5028L32.0605 24.3344C33.3169 23.0781 35.386 23.0781 36.6425 24.3344C37.8987 25.5907 37.8987 27.66 36.6425 28.9163L27.183 38.3757C25.9267 39.632 23.8574 39.632 22.6011 38.3757L9.00331 24.7408V32.87C9.00331 34.6437 7.56225 36.1217 5.75166 36.1217C3.94107 36.1217 2.5 34.6806 2.5 32.87V7.52181C2.5 5.71122 3.94107 4.27014 5.75166 4.27014C7.56225 4.27014 9.00331 5.71122 9.00331 7.52181V15.5771L22.6381 1.94224C23.8944 0.685919 25.9637 0.685919 27.22 1.94224L36.6794 11.4016C37.9357 12.6579 37.9357 14.7271 36.6794 15.9836C35.423 17.2398 33.3538 17.2398 32.0975 15.9836L24.9291 8.81507L13.5483 20.159ZM24.9291 16.9073C23.1184 16.9073 21.6774 18.3483 21.6774 20.159C21.6774 21.9695 23.1184 23.4107 24.9291 23.4107C26.7396 23.4107 28.1806 21.9695 28.1806 20.159C28.1437 18.3483 26.7027 16.9073 24.9291 16.9073Z" fill="#01BC8D"/>
</svg>
